X: 8
T: L\`a Tua Danza S\`i Leggier\`a    [G]
T: The Green Hills of Tyrol
T: The Scottish Soldier
C: Gioacchino Rossini 1829
N: Rossini's opera "Guglielmo Tell" 1829
R: waltz
N: Scottish version of a melody from Rossini's opera "William Tell", which was
N: supposedly based on an Alpine folk melody.  Several sets of words have been
N: written to this tune.  There's a pipe setting  that  is  played  as  a  3/4
N: retreat march.
M: 3/4
L: 1/8
K: G
|: DGA \
| "G"B2-BG Bc | d2- de Be | "D7"dc AF Ae | "G"dB GD GA | "G"B2- BG Bc | d2- de Be |
| "D7"dc AD FA | "G"G3 :: "G7"GBd | "C"g2- g2 fe | "G"ed dG Be | "D7"dc cB cd |
| "G"cB BG Bd | "C"g2- g2 fe | "G"ed dG Be |1 "D7"dc cB cA | "G"d3 :|2 "D"dc AD FA | "G"G3 |]


